X:131
T:Father Harpin's Topcoat
B:Terry "Cuz" Teahan "Sliabh Luachra on Parade" 1980
Z:Patrick Cavanagh
M:3/4
L:1/8
R:Waltz
K:D
A>d | f2f2A>d | f2f2A>d | f2g2f2 | e4(3Bcd | e2e2(3Bcd | e2e2c>d | e2f2e2 | d3BA>d | 
f2f2A>d | f2f2A>d | f2g2(3faf | e4(3Bcd | e2e2(3Bcd | e2e2c>d | (3egef2e2 | d2d>ef>g | 
a2d'2c'2 | e4f2 | g2b2a2 | f4f2 | f2e2f2 | g4e>g | b2a2g2 | f2fefg | 
a2d'2c'2 | e4f2 | g2b2a2 | f4f2 | f2e2f2 | g4e>g | b2a2c2 | d4 :|| 

